!!!!SEGMENT: pl-wnifc--13846--002_anonim--piesni-polskie-i-ruskie-ludu-galicyjskiego-2-na-pierwse-zaloty.krn
!!!kernsource:
!!!cenid: 18xx:3224
!!!COM: Anonim
!!!COM-rismID:
!!!CDT:
!!!CNT:
!!!GTL: Pieśni polskie i ruskie ludu galicyjskiego
!!!OTL: 2. Na pierwse zaloty
!!!PDT: 1833
!!!AGN:
!!!SMS-siglum: PL-Wnifc
!!!SMS-shelfmark: 13846
!!!SMS-shelfwork: 002 G
!!!SMS-variant:
!!!SMS-altvar:
!!!NIFC-rismSourceID: 1001036719
!!!NIFC-islandoraID:
!!!URL-pdf-islandora:
!!!URL-scan:
!!!ONB-nifc:
!!!OMD: Moderato.
!!!AIN: 1 piano 1 vox
!!!key: A
**kern	**kern	**kern	**text
*part2	*part2	*part1	*part1
*staff3	*staff2	*staff1	*staff1
*I"Fortepian	*I"Fortepian	*I"Głos	*
*Ipiano	*Ipiano	*Ivox	*
*ICklav	*ICklav	*ICvox	*
*IGacmp	*IGacmp	*ICsolo	*
*clefF4	*clefG2	*clefG2	*
*k[f#c#g#]	*k[f#c#g#]	*k[f#c#g#]	*
*A:	*A:	*A:	*
*M3/8	*M3/8	*M3/8	*
=1	=1	=1	=1
!	!	!LO:TX:a:t=A.b.I36.	!
8AA\L 8E 8A	16a'\LL	16a\	Na
.	16a'\JJ 16cc#\	16cc#\	pierw-
8AA\ 8E 8A	8cc#\L 8ee	8ee\	-se
8AA\J 8E 8A	8cc#\J 8dd#X	8dd#X\	za-
=2	=2	=2	=2
*tremolo	*	*	*
8AA\L 8E 8A	8cc#\' 8ff#	8ff#\	-lo-
8AA\ 8E 8A	4cc#\' 4ee	4ee\	-ty
8AA\J 8E 8A	.	.	.
=3	=3	=3	=3
8AA\L 8E 8A	16a\LL 16cc#	16cc#\	stra-
.	16a\JJ 16cc#	16cc#\	-ci-
8AA\ 8E 8A	8cc#\L 8ee	8ee\	-łem
8AA\J 8E 8A	8g#\J 8b	8b\	se
!!LO:LB:g=original
=4	=4	=4	=4
8AA\L 8E 8A	8e/ 8a 8cc#	8cc#\	zło-
8AA\ 8E 8A	4e/ 4a	4a/	-ty
8AA\J 8E 8A	.	.	.
=5	=5	=5	=5
8AA\L 8E 8A	16a\LL 16cc#	16cc#\	je-
.	16a\JJ 16cc#	16cc#\	-sce
8AA\ 8E 8A	8cc#\ 8ee	8ee\	mi
8AA\J 8E 8A	(16a\LL 16dd	(16dd\LL	jom
.	16cc#\JJ)	16cc#\JJ)	.
=6	=6	=6	=6
8AA\L 8E 8A	(16d/LL 16g# 16b	16b\	nie
.	16cc#/JJ)	16cc#\	chcom
*	*^	*	*
8AA\ 8E 8A	4c#/ 4a	4a\	8a\	dać!
8AA\J 8E 8A	.	.	8r	.
*	*v	*v	*	*
!!LO:LB:g=original
=7	=7	=7	=7
8AA\L 8E 8A	16e/LL	16.e/	Da-
.	16f#/JJ	.	.
.	.	32f#/	-dzom
*	*^	*	*
8AA\ 8E 8A	8g#/L	4B\ 4d	8g#/	ci
8AA\J 8E 8A	8e/J	.	8e/	jom
*	*v	*v	*	*
=8	=8	=8	=8
8AA\L 8E 8A	8c#/ 8e 8a	8a/	da-
8AA\ 8E 8A	8.c#/L 8.e 8.a 8.cc#	8.cc#/L	-dzom
8AA\J 8E 8A	.	.	.
.	16a/Jk	16a/Jk	.
=9	=9	=9	=9
8AA\L 8E 8A	16.e/LL 16.a 16.cc#	16.cc#\	do
.	32cc#/JJk 32ee	32ee\	dom
8AA\ 8E 8A	8cc#\L 8dd#X	8dd#X\	przy-
8AA\J 8E 8A	8cc#\J 8ee	8ee\	-pro-
!!LO:LB:g=original
=10	=10	=10	=10
8AA\L 8E 8A	8a'\ 8cc# 8ff#	8ff#\	-wa-
8AA\ 8E 8A	4a'\ 4cc# 4ee	4ee\	-dzom
8AA\J 8E 8A	.	.	.
=11	=11	=11	=11
8AA\L 8E 8A	16.B/LL 16.d 16.e	16.e/	tyl-
.	32f#/JJk	32f#/	-ko
8AA\ 8E 8A	8B/L 8d 8g#	8g#/	tze-
8AA\J 8E 8A	8B/J 8d 8e	8e/	-ba
=12	=12	=12	=12
8AA\L 8E 8A	8c#/ 8e 8a	8a/	po-
8AA\ 8E 8A	8.c#/L 8.e 8.a 8.cc#	(8.cc#/L	-ce-
8AA\J 8E 8A	.	.	.
.	16B/Jk 16d 16e 16g#	16g#/Jk)	.
*Xtremolo	*	*	*
=13	=13	=13	=13
!LO:TX:t=P:ligatury:problem	!LO:TX:t=P:ligatury:problem	!	!
4.AA\ 4.E 4.A	4.c#/ 4.e 4.a	4.a/	-kać.
==	==	==	==
*-	*-	*-	*-
!!!system-decoration: s1,{(s2,s3)}
!!!RDF**kern: < = below
!!!RDF**kern: > = above
!!!ENC: Marta Chmielewska
!!!END: 2021-11-09
